!!!!SEGMENT: Wil3007-Je_lay_aymee_bien_sept_ans_et_demy.krn
!!!id: Wil3007
!!!AGN: Chanson
!!!SCT: Bernstein (1992)
!!!voices: 5
!!!COM: Adrian Willaert
!!!OTL: Je l'ay aymée bien sept ans & demy
**kern	**kern	**kern	**kern	**kern
*part5	*part4	*part3	*part2	*part1
*staff5	*staff4	*staff3	*staff2	*staff1
*I"Bass	*I"Tenor	*I"Altus II	*I"Altus I	*I"Superius
*I'B	*I'T	*I'A	*I'A	*I'S
*clefF4	*clefGv2	*clefGv2	*clefGv2	*clefG2
*k[b-]	*k[b-]	*k[b-]	*k[b-]	*k[b-]
*F:	*F:	*F:	*F:	*F:
*M2/1	*M2/1	*M2/1	*M2/1	*M2/1
*met(C|)	*met(C|)	*met(C|)	*met(C|)	*met(C|)
=1	=1	=1	=1	=1
!	!	!LO:TX:a:t=Canon&colon; Altus II/Superius at the fourth	!	!
1G	0r	0r	0r	0r
1B-y	.	.	.	.
=2	=2	=2	=2	=2
2A	2r	0r	0r	0r
1G	2G	.	.	.
.	[1B-y	.	.	.
4F	.	.	.	.
4E	.	.	.	.
=3	=3	=3	=3	=3
1D	2B-]	1r	0r	0r
.	2A	.	.	.
2GG	2.G	1d	.	.
[2BB-y	.	.	.	.
.	8FL	.	.	.
.	8EJ	.	.	.
=4	=4	=4	=4	=4
4BB-]	1D	1f	0r	0r
4C	.	.	.	.
4D	.	.	.	.
4BB-y	.	.	.	.
1C	2r	1e	.	.
.	[2G	.	.	.
=5	=5	=5	=5	=5
2.BB-y	4G]	1.d	0r	0r
.	4F	.	.	.
.	1F	.	.	.
4AA	.	.	.	.
1GG	.	.	.	.
.	2E	4c	.	.
.	.	4B-y	.	.
=6	=6	=6	=6	=6
2r	2.F	2A	0r	1r
2D	.	2.d	.	.
.	4E	.	.	.
2.E	1C	.	.	1g
.	.	4c	.	.
.	.	[2c	.	.
4F	.	.	.	.
=7	=7	=7	=7	=7
1G	2r	2c]	1d	1b-y
.	2G	2B-y	.	.
2.F	2.A	1c	1f	1a
4E	4B-y	.	.	.
=8	=8	=8	=8	=8
4C	1c	0r	1e	1.g
4D	.	.	.	.
4E	.	.	.	.
4F	.	.	.	.
2G	[1B-y	.	[1d	.
[2GG	.	.	.	4f
.	.	.	.	4e
=9	=9	=9	=9	=9
4GG]	1B-]	0r	2d]	2d
4AA	.	.	.	.
4BB-y	.	.	4c	2.g
4C	.	.	4B-y	.
2D	2r	.	2A	.
.	.	.	.	4f
2BB-y	2B-y	.	[2d	[2f
=10	=10	=10	=10	=10
2C	2G	2r	4d]	2f]
.	.	.	4c	.
2AA	1A	2c	1c	2e
1D	.	2d	.	1f
.	4G	2f	2Bni	.
.	4F	.	.	.
=11	=11	=11	=11	=11
1C	1G	2f	1.c	0r
.	.	2e	.	.
2AA	2F	1f	.	.
2BB-y	2F	.	[2d	.
=12	=12	=12	=12	=12
1GG	2G	1r	2d]	0r
.	2B-y	.	4c	.
.	.	.	4B-y	.
1FF	2B-y	2r	1c	.
.	2A	2c	.	.
=13	=13	=13	=13	=13
0r	2B-y	2d	2.B-y	2r
.	1d	2f	.	2f
.	.	.	4A	.
.	.	2f	1G	2g
.	4c	2e	.	2b-y
.	4B-y	.	.	.
=14	=14	=14	=14	=14
2r	1c	1f	1F	2b-y
2F	.	.	.	2a
2G	2B-y	1r	1r	1b-y
2B-y	[2d	.	.	.
=15	=15	=15	=15	=15
2B-y	4d]	0r	2r	1r
.	4e	.	.	.
2A	2.f	.	2c	.
2.B-y	.	.	2d	2r
.	4e	.	.	.
.	4d	.	2f	2f
4A	4c	.	.	.
=16	=16	=16	=16	=16
1G	1B-y	0r	2f	2g
.	.	.	2e	2b-y
1F	1c	.	1f	2b-y
.	.	.	.	2a
=17	=17	=17	=17	=17
1BB-y	0B-y	0r	2r	1b-y
.	.	.	2f	.
2r	.	.	2f	1r
2B-y	.	.	2f	.
=18	=18	=18	=18	=18
2B-y	0r	0r	2d	0r
2B-y	.	.	2f	.
2G	.	.	2e	.
2B-y	.	.	[2d	.
=19	=19	=19	=19	=19
2A	2r	0r	4d]	0r
.	.	.	4c	.
2.G	2B-y	.	2d	.
.	2B-y	.	2G	.
4F	.	.	.	.
2G	2B-y	.	2d	.
=20	=20	=20	=20	=20
2C	2G	2r	2e	0r
2.D	2B-y	2f	2d	.
.	1A	2f	4f	.
4C	.	.	4e	.
2D	.	2f	4d	.
.	.	.	4c	.
=21	=21	=21	=21	=21
1GG	2G	0d	2.B-y	0r
.	2B-y	.	.	.
.	.	.	8AL	.
.	.	.	8GJ	.
2r	2A	.	2F	.
2GG	[2G	.	2B-y	.
=22	=22	=22	=22	=22
2D	2G]	1f	4A	0r
.	.	.	4G	.
2D	2F	.	4A	.
.	.	.	4B-y	.
1C	[1G	1e	1c	.
=23	=23	=23	=23	=23
2GG	2G]	1d	2.B-y	2r
2BB-y	2.F	.	.	2b-y
.	.	.	4c	.
2BB-y	.	2r	1d	2b-y
.	4E	.	.	.
2BB-y	2D	2f	.	2b-y
=24	=24	=24	=24	=24
2C	2C	2e	0r	0g
2GG	2D	2d	.	.
1C	1E-X	2d	.	.
.	.	2c	.	.
=25	=25	=25	=25	=25
2.BB-y	1D	0d	2r	1b-y
.	.	.	2f	.
4C	.	.	.	.
1D	2r	.	2f	1a
.	2A	.	2f	.
=26	=26	=26	=26	=26
2GG	2B-y	0r	1d	1g
2G	2B-y	.	.	.
2F	2c	.	1f	2r
2BB-y	2d	.	.	2b-y
=27	=27	=27	=27	=27
1C	2.c	0r	1e	2a
.	.	.	.	2g
.	4B-y	.	.	.
1D	1A	.	2d	2g
.	.	.	2f	2f#i
=28	=28	=28	=28	=28
1GG	2.G	0r	2e	0g
.	.	.	2d	.
.	4F	.	.	.
2r	1E	.	2d	.
2G	.	.	2c#i	.
=29	=29	=29	=29	=29
2B-y	1D	0r	1d	0r
2A	.	.	.	.
2.G	1r	.	2r	.
.	.	.	2d	.
8FL	.	.	.	.
8EJ	.	.	.	.
=30	=30	=30	=30	=30
2D	2r	0r	2f	0r
2.G	2G	.	2e	.
.	2B-y	.	2.d	.
8F#iL	.	.	.	.
8EJ	.	.	.	.
2F#i	2A	.	.	.
.	.	.	4c	.
=31	=31	=31	=31	=31
1G	2.G	2r	4B-y	0r
.	.	.	4A	.
.	.	2d	1d	.
.	8FL	.	.	.
.	8EJ	.	.	.
2r	2D	2f	.	.
2C	[2G	2e	2c#i	.
=32	=32	=32	=32	=32
2.BB-y	4G]	2.d	1d	0r
.	4F	.	.	.
.	2.F	.	.	.
4C	.	8cL	.	.
.	.	8B-yJ	.	.
2D	.	2A	1r	.
.	4E	.	.	.
2BB-y	4F	[2d	.	.
.	4G	.	.	.
=33	=33	=33	=33	=33
2.F	4A	4d]	2r	0r
.	4B-y	4c	.	.
.	1A	1c	2c	.
4E	.	.	.	.
1D	.	.	1f	.
.	4G	2Bni	.	.
.	4F	.	.	.
=34	=34	=34	=34	=34
1C	1G	1c	1e	2r
.	.	.	.	2g
1D	1F	1r	2.d	2b-y
.	.	.	.	2a
.	.	.	4c	.
=35	=35	=35	=35	=35
2.GG	2r	0r	4B-y	2.g
.	.	.	4A	.
.	2G	.	1d	.
4AA	.	.	.	8fL
.	.	.	.	8eJ
2BB-y	2F	.	.	2d
2C	2E	.	[2c	[2g
=36	=36	=36	=36	=36
1D	1F	0r	2c]	4g]
.	.	.	.	4f
.	.	.	2B-y	1f
1C	1G	.	[1c	.
.	.	.	.	2e
=37	=37	=37	=37	=37
0r	1F	2r	2c]	1f
.	.	2c	2A	.
.	1r	2d	2B-y	1r
.	.	2f	2A	.
=38	=38	=38	=38	=38
1r	1r	2f	2G	0r
.	.	2e	2G	.
2r	2r	1f	1F	.
2D	2F	.	.	.
=39	=39	=39	=39	=39
2E-i	2G	1r	2r	0r
2D	2B-y	.	2d	.
2C	2B-y	2r	2e	.
2C	2A	2c	2e	.
=40	=40	=40	=40	=40
1BB-y	2.B-y	2d	2.d	2r
.	.	2f	.	2f
.	4A	.	4c	.
1r	1G	2f	2d	2g
.	.	2e	4c	2b-y
.	.	.	4B-y	.
=41	=41	=41	=41	=41
2r	2F	1f	2d	2b-y
2F	2f	.	2c	2a
2G	2e	1r	1B-y	1b-y
2B-y	[2d	.	.	.
=42	=42	=42	=42	=42
2B-y	4d]	0r	2r	1r
.	4e	.	.	.
2A	2.f	.	2c	.
2.B-y	.	.	2d	2r
.	4e	.	.	.
.	4d	.	2f	2f
4A	4c	.	.	.
=43	=43	=43	=43	=43
1G	2B-y	2r	4e	2g
.	.	.	4d	.
.	2G	2e	4c	2b-y
.	.	.	4B-y	.
1F	1A	2f	1c	2b-y
.	.	2f	.	2a
=44	=44	=44	=44	=44
1BB-y	1F	2d	2.B-y	1b-y
.	.	2f	.	.
.	.	.	4A	.
1r	2r	2e	4G	1r
.	.	.	4A	.
.	2B-y	2d	4B-y	.
.	.	.	4c	.
=45	=45	=45	=45	=45
0r	2B-y	2r	2.d	0r
.	2B-y	2f	.	.
.	.	.	4c	.
.	2G	2e	4B-y	.
.	.	.	4G	.
.	2B-y	2d	[2g	.
=46	=46	=46	=46	=46
1r	1A	2d	2g]	2r
.	.	2c	2f#i	2a
2r	[1G	[1d	[1g	2b-y
2B-y	.	.	.	2b-y
=47	=47	=47	=47	=47
2.B-y	1G]	1d]	2g]	2g
.	.	.	2d	2b-y
8AL	.	.	.	.
8GJ	.	.	.	.
2F	2r	1r	2f	2a
[2G	2B-y	.	2e	2g
=48	=48	=48	=48	=48
4G]	2.B-y	0r	1.d	2r
4F	.	.	.	.
2G	.	.	.	2b-y
.	8AL	.	.	.
.	8GJ	.	.	.
2D	2F	.	.	2a
2E	2G	.	2c	2g
=49	=49	=49	=49	=49
1D	2A	0r	1.d	2g
.	2A	.	.	2f#i
1GG	1G	.	.	[1g
.	.	.	4c	.
.	.	.	4B-y	.
=50	=50	=50	=50	=50
1r	2r	1r	1c	1g]
.	2C	.	.	.
2r	2D	2r	2r	1r
2C	2E	2c	2G	.
=51	=51	=51	=51	=51
2BB-y	1F	1d	2B-y	0r
2D	.	.	2A	.
1C	2r	1e	1c	.
.	2G	.	.	.
=52	=52	=52	=52	=52
2r	2F	1f	2r	0r
2FF	2A	.	2c	.
1GG	1G	1r	2B-y	.
.	.	.	2d	.
=53	=53	=53	=53	=53
1AA	2r	2r	4c	1r
.	.	.	4B-y	.
.	2c	2c	4A	.
.	.	.	4G	.
1BB-y	2B-y	2d	1F	2r
.	2d	2f	.	2f
=54	=54	=54	=54	=54
2r	1c	2f	0r	1g
2C	.	2e	.	.
2F	2r	4f	.	1a
.	.	4g	.	.
2F	2F	4a	.	.
.	.	4f	.	.
=55	=55	=55	=55	=55
2E-X	2B-y	2g	1r	1b-y
2D	2B-y	2f	.	.
1C	2A	2f	2r	1r
.	2G	2e	2c	.
=56	=56	=56	=56	=56
1BB-y	2.B-y	1f	2d	2r
.	.	.	1f	2f
.	4A	.	.	.
1r	1G	1r	.	2g
.	.	.	2e	2b-y
=57	=57	=57	=57	=57
2r	1F	0r	4f	2b-y
.	.	.	4g	.
2F	.	.	4a	2a
.	.	.	4f	.
2B-y	1r	.	2g	4b-y
.	.	.	.	4cc
2B-y	.	.	[2f	4dd
.	.	.	.	4b-y
=58	=58	=58	=58	=58
2A	2r	1r	2f]	2cc
2G	2B-y	.	2e	2b-y
2F	2c	2r	[1f	2b-y
2F	2c	2c	.	2a
=59	=59	=59	=59	=59
2.B-y	4B-y	2d	1f]	1b-y
.	4c	.	.	.
.	4d	2d	.	.
4B-y	4B-y	.	.	.
2A	2c	2e	1r	1r
2G	[2B-y	2e	.	.
=60	=60	=60	=60	=60
1F	2B-]	2.f	2r	0r
.	2A	.	2c	.
.	.	4e	.	.
2r	2.B-y	2d	2.d	.
2BB-y	.	2f	.	.
.	4A	.	4d	.
=61	=61	=61	=61	=61
2C	1G	2e	2c	1r
2GG	.	2d	2B-y	.
2AA	1r	2d	4A	2r
.	.	.	4B-y	.
2AA	.	2c	4c	2f
.	.	.	4A	.
=62	=62	=62	=62	=62
1GG	0r	1d	2.B-y	2g
.	.	.	.	2g
.	.	.	4A	.
2.D	.	1r	2F	2a
.	.	.	[2f	2a
4C	.	.	.	.
=63	=63	=63	=63	=63
1BB-y	1D	2r	4f]	2.b-y
.	.	.	4e	.
.	.	2f	4d	.
.	.	.	4c	4a
2r	2G	2e	1B-y	2g
2GG	2G	2d	.	2b-y
=64	=64	=64	=64	=64
2D	2F	2d	2r	2a
2E	2E	2c	2G	2g
2F	1D	2d	1A	2g
2F	.	2f	.	2f#i
=65	=65	=65	=65	=65
2C	1G	1e	1c	1g
2C	.	.	.	.
2D	2r	2d	2B-y	1r
2D	2D	[2d	2A	.
=66	=66	=66	=66	=66
1GG	2G	2d]	2B-y	2r
.	2G	4c	2G	2b-y
.	.	4B-y	.	.
1r	2F	2c	2A	2a
.	2E	2c	2c	2g
=67	=67	=67	=67	=67
1D	2D	0d	2B-y	2g
.	2A	.	2A	2f#i
1GG	2B-y	.	1G	2g
.	2G	.	.	2b-y
=68	=68	=68	=68	=68
1D	2G	2.d	2r	1a
.	2F#i	.	2f	.
.	.	4c	.	.
2.G	[1G	4B-y	2e	2g
.	.	4A	.	.
.	.	[2B-y	[2d	[2g
4F	.	.	.	.
=69	=69	=69	=69	=69
2E	2G]	2B-]	2d]	2g]
2E	2C	4A	2c#i	4f#i
.	.	4G	.	4e
2D	1F	1A	1d	2f#i
2D	.	.	.	2f#i
=70	=70	=70	=70	=70
00GGl	00Dl	00Gl	00dl	00gl
==	==	==	==	==
*-	*-	*-	*-	*-
!!!system-decoration: [*]
!!!RDF**kern: i = editorial accidental
!!!RDF**kern: l = terminal long
!!!ENC: Benjamin Ory
!!!END: 2020/12/18
!!!EED: Benjamin Ory
!!!EEV: 2021/04/30
!!!YEC: Copyright 2021 Benjamin Ory, All Rights Reserved
!!!ONB: Translated from MusicXML on 2021/04/30
